!! 00000] TT[WS
!!!OTL: Helili la
!!!ARE: Asia, China, Shanxi Xingxian
!! Ethnic Group: Han
!! WII, 143
!!!SCT: J0619
!!!YEM: Copyright 1995, estate of Helmut Schaffrath.
**kern
*ICvox
*Ivox
*M2/4
*k[f#]
*G:
{4dd
8b
8b
=1
2a
=2
4b
8b
8a
=3
2g}
=4
{4dd
8b
8b
=5
4a
4g
=6
8g
8a
8g
8e
=7
2d}
=8
{4g
4b
=9
2a
=10
4g
8b
8a
=11
2g}
=12
{4a
8a
8b
=13
4a
4g
=14
4g
8e
8g
=15
2a
=16
8g
4g
8e
=17
2d}
==
!!!AGN: Xiaodiao. Qingge, Aisu
!!!ONB: ESAC (Essen Associative Code) Database: CHINA
!!!AMT: simple duple
!!!AIN: vox
!!!EED: Helmut Schaffrath
!!!EEV: 1.0
*-
